
surface reflect(float eta = 1.5)
{
	float from_ior, to_ior;

	if (backfacing())
	{
		from_ior = eta;
		to_ior = 1.0;
	}
	else
	{
		from_ior = 1.0;
		to_ior = eta;
	}

	float Kr, Kt;
	fresnel( I, N, from_ior / to_ior, Kr, Kt);
 	Ci = Kr * reflection(N);
}
