
shader texmap(
	string txfile = "",
	output color out = 0)
{
	// Probably not the best way to do this...

	int nchannels;
	if (txfile != "" && gettextureinfo(txfile, "channels", nchannels))
	{
		if (nchannels == 1)
		{
			float val = texture(txfile, u, v);
			out = color( val, val, val);
		}
		else
			out = texture(txfile, u, v);
	}
	else
		out = color(0.5, 0.0, 1.5);
}
