
surface glass(
    string distribution = "specular",
    float roughness = 0.025,
    float ior = 1.5)
{
    float from_ior;
    float to_ior;

    if (backfacing())
    {
        from_ior = ior;
        getattribute("path:ray_ior", to_ior);
    }
    else
    {
        getattribute("path:ray_ior", from_ior);
        to_ior = ior;
    }

    float eta = from_ior / to_ior;

    float Kr, Kt;
    fresnel(I, N, eta, Kr, Kt);

    if (distribution == "specular")
        Ci = Kr * reflection(N) + Kt * refraction(N, eta);
    else
    {
        Ci =  
            Kr * microfacet(distribution, N, roughness, eta, 0) +
            Kt * microfacet(distribution, N, roughness, eta, 1);
    }
}
