
surface subsurface_betterdipole(vector Tn = 0 [[int lockgeom = 0]])
{
    closure color diff = 0;

    diff =
        0.3 * as_subsurface("better_dipole", N, color(0.5, 0.0, 0.0),  0.10, 1.3) +
        0.2 * as_subsurface("better_dipole", N, color(0.5, 0.3, 0.05), 0.05, 1.3) +
        0.5 * as_subsurface("better_dipole", N, color(0.0, 0.5, 0.77), 0.01, 1.3);

    Ci = color(1.0, 0.8, 0.9) * diff + 0.65 * as_glossy("ggx", N, Tn, 0.2, 0.5, 0.0, 1.3);
}
