
surface subsurface_multi2()
{
    int depth;
    getattribute("path:ray_depth", depth);

    closure color diff = 0;

    if (depth == 0)
    {
        diff =
            0.3 * as_subsurface("standard_dipole", N, color(0.5, 0.0, 0.0) , 0.25, 1.3) +
            0.2 * as_subsurface("better_dipole", N, color(0.5, 0.3, 0.05), 0.10, 1.3) +
            0.5 * as_subsurface("directional_dipole", N, color(0.0, 0.5, 0.77), 0.05, 1.3);
    }
    else
    {
        diff =
            (0.3 * color(0.5, 0.0, 0.0) + 0.2 * color(0.5, 0.3, 0.05) + 0.5 * color(0.0, 0.5, 0.77)) * diffuse(N);
    }

    Ci = color(0.35, 0.5, 0.75) * diff + 0.65 * as_glossy("ggx", N, 0.2, 1.3);
}
