
surface subsurface_bump(string profile = "directional_dipole", color Rd = 0.5, color dmfp = 0.05, string bumptx = "bump.exr", float Kbump = 0.5)
{
    float height = texture( bumptx, 1.5 * u, 1.5 * v, "wrap", "periodic");
    normal Normal = normalize(calculatenormal(P + (N * height * Kbump)));

    if (dot(Normal, N) < 0.0)
        Normal = -Normal;

    if (raytype("camera"))
        Ci = 0.8 * as_subsurface(profile, Normal, Rd, dmfp, 1.3) + 0.2 * Rd * diffuse(Normal);
    else
        Ci = Rd * diffuse(Normal);
}
