
surface subsurface_multi()
{
    Ci =
        0.3 * as_subsurface("directional_dipole", N, color(0.5, 0.0, 0.0) , 0.1, 1.3) +
        0.2 * as_subsurface("directional_dipole", N, color(0.5, 0.3, 0.05), 0.05, 1.3) +
        0.5 * as_subsurface("directional_dipole", N, color(0.0, 0.5, 0.77), 0.01, 1.3);
}
