sandbox/ocio/luts/panalog.spi1d
Version 1
From -0.125 1.125
Length 4101
Components 1
{
        -0.0267908168796
        -0.0267653794441
        -0.0267399008311
        -0.0267143809741
        -0.0266888198063
        -0.0266632172608
        -0.0266375732705
        -0.0266118877685
        -0.0265861606875
        -0.0265603919602
        -0.0265345815192
        -0.026508729297
        -0.0264828352259
        -0.0264568992382
        -0.0264309212661
        -0.0264049012415
        -0.0263788390964
        -0.0263527347626
        -0.0263265881719
        -0.0263003992558
        -0.0262741679458
        -0.0262478941733
        -0.0262215778695
        -0.0261952189656
        -0.0261688173927
        -0.0261423730816
        -0.0261158859632
        -0.0260893559682
        -0.0260627830271
        -0.0260361670705
        -0.0260095080288
        -0.0259828058321
        -0.0259560604106
        -0.0259292716944
        -0.0259024396134
        -0.0258755640973
        -0.0258486450759
        -0.0258216824787
        -0.0257946762352
        -0.0257676262747
        -0.0257405325265
        -0.0257133949197
        -0.0256862133833
        -0.0256589878462
        -0.0256317182371
        -0.0256044044848
        -0.0255770465177
        -0.0255496442642
        -0.0255221976528
        -0.0254947066115
        -0.0254671710685
        -0.0254395909518
        -0.0254119661891
        -0.0253842967082
        -0.0253565824367
        -0.0253288233021
        -0.0253010192318
        -0.025273170153
        -0.0252452759929
        -0.0252173366785
        -0.0251893521367
        -0.0251613222943
        -0.025133247078
        -0.0251051264143
        -0.0250769602297
        -0.0250487484504
        -0.0250204910026
        -0.0249921878125
        -0.024963838806
        -0.0249354439088
        -0.0249070030468
        -0.0248785161455
        -0.0248499831304
        -0.0248214039269
        -0.0247927784601
        -0.0247641066552
        -0.0247353884372
        -0.0247066237309
        -0.0246778124611
        -0.0246489545524
        -0.0246200499294
        -0.0245910985163
        -0.0245621002375
        -0.0245330550171
        -0.024503962779
        -0.0244748234473
        -0.0244456369456
        -0.0244164031976
        -0.0243871221268
        -0.0243577936567
        -0.0243284177104
        -0.0242989942112
        -0.024269523082
        -0.0242400042457
        -0.0242104376252
        -0.0241808231431
        -0.0241511607218
        -0.0241214502838
        -0.0240916917514
        -0.0240618850467
        -0.0240320300918
        -0.0240021268085
        -0.0239721751185
        -0.0239421749436
        -0.0239121262052
        -0.0238820288248
        -0.0238518827236
        -0.0238216878226
        -0.023791444043
        -0.0237611513057
        -0.0237308095312
        -0.0237004186404
        -0.0236699785536
        -0.0236394891912
        -0.0236089504735
        -0.0235783623206
        -0.0235477246524
        -0.0235170373888
        -0.0234863004495
        -0.0234555137541
        -0.023424677222
        -0.0233937907727
        -0.0233628543252
        -0.0233318677986
        -0.0233008311119
        -0.0232697441838
        -0.0232386069331
        -0.0232074192783
        -0.0231761811378
        -0.0231448924298
        -0.0231135530725
        -0.0230821629839
        -0.023050722082
        -0.0230192302843
        -0.0229876875087
        -0.0229560936724
        -0.0229244486929
        -0.0228927524874
        -0.022861004973
        -0.0228292060665
        -0.0227973556849
        -0.0227654537447
        -0.0227335001626
        -0.0227014948549
        -0.0226694377379
        -0.0226373287277
        -0.0226051677403
        -0.0225729546916
        -0.0225406894973
        -0.0225083720731
        -0.0224760023342
        -0.0224435801961
        -0.022411105574
        -0.0223785783828
        -0.0223459985375
        -0.0223133659529
        -0.0222806805436
        -0.022247942224
        -0.0222151509085
        -0.0221823065113
        -0.0221494089465
        -0.0221164581281
        -0.0220834539698
        -0.0220503963853
        -0.022017285288
        -0.0219841205915
        -0.0219509022088
        -0.0219176300532
        -0.0218843040375
        -0.0218509240745
        -0.021817490077
        -0.0217840019575
        -0.0217504596283
        -0.0217168630018
        -0.0216832119899
        -0.0216495065047
        -0.021615746458
        -0.0215819317615
        -0.0215480623267
        -0.021514138065
        -0.0214801588876
        -0.0214461247056
        -0.0214120354301
        -0.0213778909718
        -0.0213436912414
        -0.0213094361494
        -0.0212751256062
        -0.021240759522
        -0.021206337807
        -0.0211718603711
        -0.021137327124
        -0.0211027379755
        -0.021068092835
        -0.0210333916119
        -0.0209986342155
        -0.0209638205547
        -0.0209289505385
        -0.0208940240757
        -0.020859041075
        -0.0208240014447
        -0.0207889050932
        -0.0207537519287
        -0.0207185418593
        -0.0206832747927
        -0.0206479506368
        -0.0206125692992
        -0.0205771306872
        -0.0205416347081
        -0.0205060812692
        -0.0204704702773
        -0.0204348016393
        -0.020399075262
        -0.0203632910517
        -0.020327448915
        -0.020291548758
        -0.0202555904868
        -0.0202195740074
        -0.0201834992254
        -0.0201473660467
        -0.0201111743765
        -0.0200749241203
        -0.0200386151831
        -0.02000224747
        -0.0199658208859
        -0.0199293353355
        -0.0198927907232
        -0.0198561869535
        -0.0198195239307
        -0.0197828015588
        -0.0197460197417
        -0.0197091783832
        -0.019672277387
        -0.0196353166564
        -0.0195982960948
        -0.0195612156054
        -0.0195240750911
        -0.0194868744547
        -0.019449613599
        -0.0194122924265
        -0.0193749108394
        -0.0193374687401
        -0.0192999660306
        -0.0192624026127
        -0.0192247783881
        -0.0191870932586
        -0.0191493471253
        -0.0191115398897
        -0.0190736714528
        -0.0190357417155
        -0.0189977505785
        -0.0189596979426
        -0.0189215837081
        -0.0188834077754
        -0.0188451700445
        -0.0188068704154
        -0.0187685087879
        -0.0187300850617
        -0.0186915991363
        -0.0186530509108
        -0.0186144402846
        -0.0185757671566
        -0.0185370314255
        -0.0184982329902
        -0.018459371749
        -0.0184204476003
        -0.0183814604422
        -0.0183424101729
        -0.01830329669
        -0.0182641198913
        -0.0182248796743
        -0.0181855759363
        -0.0181462085745
        -0.0181067774859
        -0.0180672825674
        -0.0180277237155
        -0.0179881008269
        -0.0179484137979
        -0.0179086625245
        -0.017868846903
        -0.0178289668289
        -0.0177890221982
        -0.0177490129061
        -0.0177089388482
        -0.0176687999194
        -0.0176285960149
        -0.0175883270294
        -0.0175479928576
        -0.0175075933939
        -0.0174671285327
        -0.0174265981681
        -0.017386002194
        -0.0173453405043
        -0.0173046129926
        -0.0172638195524
        -0.0172229600768
        -0.017182034459
        -0.017141042592
        -0.0170999843685
        -0.0170588596811
        -0.0170176684221
        -0.0169764104839
        -0.0169350857585
        -0.0168936941377
        -0.0168522355134
        -0.0168107097769
        -0.0167691168198
        -0.0167274565331
        -0.0166857288079
        -0.016643933535
        -0.0166020706051
        -0.0165601399086
        -0.0165181413359
        -0.016476074777
        -0.0164339401219
        -0.0163917372605
        -0.0163494660822
        -0.0163071264765
        -0.0162647183326
        -0.0162222415396
        -0.0161796959863
        -0.0161370815615
        -0.0160943981536
        -0.0160516456509
        -0.0160088239418
        -0.015965932914
        -0.0159229724554
        -0.0158799424536
        -0.015836842796
        -0.0157936733699
        -0.0157504340623
        -0.0157071247601
        -0.01566374535
        -0.0156202957185
        -0.015576775752
        -0.0155331853365
        -0.0154895243581
        -0.0154457927025
        -0.0154019902553
        -0.0153581169019
        -0.0153141725275
        -0.0152701570172
        -0.0152260702558
        -0.015181912128
        -0.0151376825182
        -0.0150933813107
        -0.0150490083897
        -0.015004563639
        -0.0149600469424
        -0.0149154581834
        -0.0148707972453
        -0.0148260640113
        -0.0147812583645
        -0.0147363801874
        -0.0146914293628
        -0.0146464057731
        -0.0146013093004
        -0.0145561398268
        -0.0145108972341
        -0.014465581404
        -0.0144201922178
        -0.0143747295568
        -0.0143291933022
        -0.0142835833347
        -0.0142378995351
        -0.0141921417838
        -0.0141463099612
        -0.0141004039472
        -0.0140544236218
        -0.0140083688648
        -0.0139622395556
        -0.0139160355736
        -0.0138697567978
        -0.0138234031072
        -0.0137769743805
        -0.0137304704963
        -0.0136838913329
        -0.0136372367685
        -0.0135905066809
        -0.0135437009479
        -0.0134968194471
        -0.0134498620559
        -0.0134028286513
        -0.0133557191103
        -0.0133085333097
        -0.0132612711261
        -0.0132139324357
        -0.0131665171147
        -0.0131190250392
        -0.0130714560848
        -0.0130238101271
        -0.0129760870414
        -0.0129282867029
        -0.0128804089865
        -0.012832453767
        -0.0127844209189
        -0.0127363103166
        -0.0126881218342
        -0.0126398553456
        -0.0125915107245
        -0.0125430878445
        -0.0124945865789
        -0.0124460068007
        -0.012397348383
        -0.0123486111983
        -0.0122997951193
        -0.0122509000181
        -0.0122019257669
        -0.0121528722375
        -0.0121037393016
        -0.0120545268307
        -0.012005234696
        -0.0119558627685
        -0.0119064109192
        -0.0118568790185
        -0.011807266937
        -0.0117575745448
        -0.011707801712
        -0.0116579483082
        -0.0116080142031
        -0.0115579992661
        -0.0115079033663
        -0.0114577263727
        -0.0114074681539
        -0.0113571285785
        -0.0113067075147
        -0.0112562048308
        -0.0112056203945
        -0.0111549540735
        -0.0111042057352
        -0.011053375247
        -0.0110024624758
        -0.0109514672884
        -0.0109003895513
        -0.0108492291311
        -0.0107979858938
        -0.0107466597053
        -0.0106952504314
        -0.0106437579377
        -0.0105921820892
        -0.0105405227513
        -0.0104887797886
        -0.0104369530658
        -0.0103850424474
        -0.0103330477975
        -0.0102809689801
        -0.0102288058589
        -0.0101765582976
        -0.0101242261593
        -0.0100718093072
        -0.0100193076041
        -0.00996672091277
        -0.00991404909553
        -0.0098612920146
        -0.00980844953197
        -0.00975552150939
        -0.00970250780839
        -0.00964940829027
        -0.00959622281612
        -0.00954295124679
        -0.00948959344292
        -0.00943614926491
        -0.00938261857294
        -0.00932900122697
        -0.00927529708672
        -0.00922150601168
        -0.00916762786115
        -0.00911366249415
        -0.0090596097695
        -0.0090054695458
        -0.0089512416814
        -0.00889692603444
        -0.0088425224628
        -0.00878803082416
        -0.00873345097597
        -0.00867878277542
        -0.0086240260795
        -0.00856918074496
        -0.0085142466283
        -0.00845922358582
        -0.00840411147355
        -0.00834891014732
        -0.0082936194627
        -0.00823823927505
        -0.00818276943949
        -0.00812720981089
        -0.00807156024389
        -0.00801582059292
        -0.00795999071213
        -0.00790407045548
        -0.00784805967666
        -0.00779195822914
        -0.00773576596615
        -0.00767948274068
        -0.00762310840547
        -0.00756664281305
        -0.00751008581568
        -0.00745343726542
        -0.00739669701404
        -0.00733986491311
        -0.00728294081395
        -0.00722592456763
        -0.00716881602498
        -0.00711161503661
        -0.00705432145285
        -0.00699693512382
        -0.00693945589939
        -0.00688188362918
        -0.00682421816257
        -0.00676645934869
        -0.00670860703644
        -0.00665066107447
        -0.00659262131118
        -0.00653448759472
        -0.006476259773
        -0.0064179376937
        -0.00635952120422
        -0.00630101015175
        -0.0062424043832
        -0.00618370374525
        -0.00612490808433
        -0.00606601724662
        -0.00600703107805
        -0.0059479494243
        -0.0058887721308
        -0.00582949904273
        -0.00577013000503
        -0.00571066486236
        -0.00565110345917
        -0.00559144563962
        -0.00553169124764
        -0.00547184012691
        -0.00541189212083
        -0.00535184707258
        -0.00529170482506
        -0.00523146522093
        -0.0051711281026
        -0.0051106933122
        -0.00505016069164
        -0.00498953008254
        -0.00492880132629
        -0.004867974264
        -0.00480704873655
        -0.00474602458454
        -0.00468490164831
        -0.00462367976797
        -0.00456235878333
        -0.00450093853399
        -0.00443941885923
        -0.00437779959813
        -0.00431608058947
        -0.00425426167179
        -0.00419234268334
        -0.00413032346216
        -0.00406820384596
        -0.00400598367225
        -0.00394366277825
        -0.0038812410009
        -0.0038187181769
        -0.00375609414268
        -0.00369336873441
        -0.00363054178797
        -0.00356761313902
        -0.0035045826229
        -0.00344145007473
        -0.00337821532933
        -0.00331487822127
        -0.00325143858485
        -0.0031878962541
        -0.00312425106278
        -0.00306050284439
        -0.00299665143214
        -0.00293269665898
        -0.00286863835761
        -0.00280447636043
        -0.00274021049958
        -0.00267584060693
        -0.00261136651408
        -0.00254678805234
        -0.00248210505278
        -0.00241731734616
        -0.002352424763
        -0.00228742713351
        -0.00222232428766
        -0.00215711605512
        -0.00209180226529
        -0.0020263827473
        -0.00196085733001
        -0.00189522584198
        -0.00182948811151
        -0.00176364396662
        -0.00169769323505
        -0.00163163574425
        -0.00156547132142
        -0.00149919979344
        -0.00143282098695
        -0.00136633472828
        -0.00129974084348
        -0.00123303915835
        -0.00116622949837
        -0.00109931168877
        -0.00103228555445
        -0.00096515092009
        -0.000897907610033
        -0.000830555448365
        -0.000763094258877
        -0.00069552386508
        -0.000627844090196
        -0.000560054757163
        -0.00049215568863
        -0.000424146706961
        -0.000356027634231
        -0.000287798292228
        -0.000219458502451
        -0.000151008086111
        -8.24468641278e-05
        -1.37746571327e-05
        5.50087145338e-05
        0.000123903430822
        0.000192909671974
        0.000262027618522
        0.000331257451293
        0.000400599351404
        0.000470053500267
        0.000539620079588
        0.000609299271365
        0.000679091257893
        0.000748996221761
        0.000819014345853
        0.000889145813349
        0.000959390807728
        0.00102974951276
        0.00110022211253
        0.00117080879139
        0.00124150973401
        0.00131232512537
        0.00138325515073
        0.00145429999565
        0.00152545984601
        0.00159673488796
        0.00166812530798
        0.00173963129285
        0.00181125302962
        0.00188299070569
        0.00195484450872
        0.0020268146267
        0.00209890124793
        0.00217110456098
        0.00224342475476
        0.00231586201848
        0.00238841654163
        0.00246108851404
        0.00253387812584
        0.00260678556744
        0.0026798110296
        0.00275295470336
        0.00282621678008
        0.00289959745142
        0.00297309690937
        0.00304671534621
        0.00312045295454
        0.00319430992727
        0.00326828645763
        0.00334238273915
        0.00341659896569
        0.0034909353314
        0.00356539203077
        0.00363996925859
        0.00371466720996
        0.00378948608032
        0.00386442606539
        0.00393948736124
        0.00401467016424
        0.00408997467109
        0.00416540107879
        0.00424094958468
        0.0043166203864
        0.00439241368193
        0.00446832966954
        0.00454436854786
        0.00462053051582
        0.00469681577267
        0.00477322451798
        0.00484975695166
        0.00492641327392
        0.00500319368533
        0.00508009838674
        0.00515712757936
        0.00523428146471
        0.00531156024463
        0.00538896412131
        0.00546649329725
        0.00554414797527
        0.00562192835854
        0.00569983465055
        0.00577786705511
        0.00585602577637
        0.00593431101881
        0.00601272298724
        0.0060912618868
        0.00616992792295
        0.00624872130151
        0.00632764222862
        0.00640669091074
        0.00648586755469
        0.0065651723676
        0.00664460555695
        0.00672416733055
        0.00680385789655
        0.00688367746344
        0.00696362624004
        0.00704370443551
        0.00712391225935
        0.0072042499214
        0.00728471763184
        0.00736531560119
        0.0074460440403
        0.00752690316037
        0.00760789317296
        0.00768901428994
        0.00777026672355
        0.00785165068635
        0.00793316639126
        0.00801481405154
        0.00809659388079
        0.00817850609298
        0.00826055090239
        0.00834272852367
        0.00842503917182
        0.00850748306217
        0.00859006041041
        0.00867277143258
        0.00875561634507
        0.00883859536461
        0.0089217087083
        0.00900495659357
        0.00908833923822
        0.00917185686039
        0.00925550967858
        0.00933929791164
        0.00942322177878
        0.00950728149956
        0.00959147729389
        0.00967580938204
        0.00976027798465
        0.0098448833227
        0.00992962561753
        0.0100145050909
        0.0100995219647
        0.0101846764616
        0.0102699688041
        0.0103553992156
        0.0104409679195
        0.0105266751396
        0.0106125211002
        0.0106985060258
        0.0107846301415
        0.0108708936725
        0.0109572968446
        0.0110438398837
        0.0111305230163
        0.0112173464691
        0.0113043104694
        0.0113914152445
        0.0114786610225
        0.0115660480316
        0.0116535765003
        0.0117412466576
        0.0118290587331
        0.0119170129562
        0.0120051095573
        0.0120933487666
        0.0121817308152
        0.0122702559342
        0.0123589243552
        0.0124477363102
        0.0125366920316
        0.012625791752
        0.0127150357045
        0.0128044241227
        0.0128939572405
        0.0129836352919
        0.0130734585117
        0.0131634271349
        0.0132535413967
        0.0133438015331
        0.0134342077801
        0.0135247603742
        0.0136154595523
        0.0137063055518
        0.0137972986102
        0.0138884389657
        0.0139797268567
        0.014071162522
        0.0141627462009
        0.0142544781328
        0.0143463585579
        0.0144383877165
        0.0145305658493
        0.0146228931976
        0.0147153700028
        0.0148079965069
        0.0149007729523
        0.0149936995815
        0.0150867766379
        0.0151800043648
        0.0152733830062
        0.0153669128063
        0.0154605940099
        0.0155544268621
        0.0156484116082
        0.0157425484943
        0.0158368377666
        0.0159312796717
        0.0160258744568
        0.0161206223693
        0.0162155236572
        0.0163105785686
        0.0164057873522
        0.0165011502572
        0.0165966675331
        0.0166923394297
        0.0167881661973
        0.0168841480866
        0.0169802853488
        0.0170765782353
        0.017173026998
        0.0172696318894
        0.0173663931621
        0.0174633110692
        0.0175603858644
        0.0176576178016
        0.0177550071352
        0.0178525541199
        0.017950259011
        0.018048122064
        0.0181461435351
        0.0182443236806
        0.0183426627575
        0.0184411610229
        0.0185398187345
        0.0186386361506
        0.0187376135296
        0.0188367511304
        0.0189360492124
        0.0190355080354
        0.0191351278596
        0.0192349089456
        0.0193348515545
        0.0194349559477
        0.0195352223872
        0.0196356511352
        0.0197362424544
        0.0198369966082
        0.0199379138599
        0.0200389944737
        0.0201402387141
        0.0202416468458
        0.0203432191342
        0.020444955845
        0.0205468572443
        0.0206489235989
        0.0207511551756
        0.020853552242
        0.020956115066
        0.0210588439158
        0.0211617390602
        0.0212648007684
        0.0213680293101
        0.0214714249553
        0.0215749879745
        0.0216787186387
        0.0217826172192
        0.0218866839879
        0.0219909192169
        0.0220953231791
        0.0221998961475
        0.0223046383958
        0.0224095501979
        0.0225146318283
        0.022619883562
        0.0227253056743
        0.022830898441
        0.0229366621383
        0.023042597043
        0.0231487034322
        0.0232549815835
        0.0233614317749
        0.0234680542849
        0.0235748493925
        0.0236818173771
        0.0237889585185
        0.023896273097
        0.0240037613934
        0.0241114236889
        0.0242192602651
        0.0243272714042
        0.0244354573888
        0.0245438185018
        0.0246523550268
        0.0247610672477
        0.024869955449
        0.0249790199155
        0.0250882609325
        0.0251976787859
        0.0253072737619
        0.0254170461471
        0.0255269962289
        0.0256371242949
        0.0257474306331
        0.0258579155322
        0.0259685792811
        0.0260794221695
        0.0261904444873
        0.026301646525
        0.0264130285734
        0.0265245909241
        0.0266363338687
        0.0267482576998
        0.0268603627101
        0.0269726491929
        0.0270851174419
        0.0271977677514
        0.0273106004161
        0.0274236157313
        0.0275368139925
        0.0276501954959
        0.0277637605381
        0.0278775094163
        0.0279914424281
        0.0281055598715
        0.028219862045
        0.0283343492477
        0.0284490217792
        0.0285638799394
        0.0286789240288
        0.0287941543484
        0.0289095711996
        0.0290251748845
        0.0291409657054
        0.0292569439653
        0.0293731099675
        0.0294894640162
        0.0296060064155
        0.0297227374704
        0.0298396574864
        0.0299567667692
        0.0300740656253
        0.0301915543616
        0.0303092332854
        0.0304271027045
        0.0305451629275
        0.030663414263
        0.0307818570206
        0.03090049151
        0.0310193180417
        0.0311383369264
        0.0312575484757
        0.0313769530013
        0.0314965508156
        0.0316163422316
        0.0317363275626
        0.0318565071226
