sandbox/ocio/luts/ploglin.spi1d
Version 1
From -0.125 1.125
Length 4101
Components 1
{
        0.00221660940587
        0.00222192198383
        0.00222724729452
        0.00223258536846
        0.00223793623623
        0.0022432999285
        0.002248676476
        0.00225406590955
        0.00225946826003
        0.00226488355839
        0.00227031183567
        0.00227575312298
        0.0022812074515
        0.00228667485248
        0.00229215535725
        0.00229764899723
        0.00230315580389
        0.00230867580878
        0.00231420904355
        0.00231975553989
        0.0023253153296
        0.00233088844453
        0.00233647491663
        0.00234207477789
        0.00234768806042
        0.00235331479638
        0.00235895501802
        0.00236460875765
        0.00237027604768
        0.00237595692058
        0.0023816514089
        0.00238735954528
        0.00239308136243
        0.00239881689314
        0.00240456617027
        0.00241032922677
        0.00241610609567
        0.00242189681007
        0.00242770140315
        0.00243351990818
        0.0024393523585
        0.00244519878753
        0.00245105922878
        0.00245693371583
        0.00246282228234
        0.00246872496206
        0.00247464178881
        0.00248057279651
        0.00248651801912
        0.00249247749074
        0.0024984512455
        0.00250443931764
        0.00251044174148
        0.0025164585514
        0.0025224897819
        0.00252853546753
        0.00253459564293
        0.00254067034284
        0.00254675960207
        0.00255286345551
        0.00255898193813
        0.00256511508501
        0.00257126293128
        0.00257742551218
        0.00258360286303
        0.00258979501921
        0.00259600201622
        0.00260222388962
        0.00260846067507
        0.00261471240831
        0.00262097912516
        0.00262726086154
        0.00263355765345
        0.00263986953695
        0.00264619654824
        0.00265253872356
        0.00265889609926
        0.00266526871177
        0.0026716565976
        0.00267805979337
        0.00268447833577
        0.00269091226157
        0.00269736160765
        0.00270382641097
        0.00271030670856
        0.00271680253758
        0.00272331393524
        0.00272984093885
        0.00273638358582
        0.00274294191365
        0.0027495159599
        0.00275610576226
        0.0027627113585
        0.00276933278645
        0.00277597008407
        0.00278262328939
        0.00278929244054
        0.00279597757574
        0.00280267873329
        0.0028093959516
        0.00281612926915
        0.00282287872454
        0.00282964435644
        0.00283642620362
        0.00284322430495
        0.00285003869938
        0.00285686942596
        0.00286371652384
        0.00287058003225
        0.00287745999052
        0.00288435643809
        0.00289126941446
        0.00289819895926
        0.00290514511219
        0.00291210791306
        0.00291908740178
        0.00292608361832
        0.0029330966028
        0.00294012639539
        0.00294717303638
        0.00295423656615
        0.00296131702518
        0.00296841445404
        0.00297552889341
        0.00298266038405
        0.00298980896683
        0.00299697468271
        0.00300415757277
        0.00301135767816
        0.00301857504013
        0.00302580970006
        0.00303306169939
        0.00304033107969
        0.00304761788261
        0.00305492214992
        0.00306224392346
        0.00306958324519
        0.00307694015718
        0.00308431470157
        0.00309170692064
        0.00309911685674
        0.00310654455234
        0.00311399004999
        0.00312145339237
        0.00312893462225
        0.00313643378249
        0.00314395091607
        0.00315148606606
        0.00315903927566
        0.00316661058813
        0.00317420004687
        0.00318180769537
        0.00318943357722
        0.00319707773613
        0.0032047402159
        0.00321242106044
        0.00322012031377
        0.00322783802
        0.00323557422336
        0.00324332896818
        0.00325110229891
        0.00325889426009
        0.00326670489636
        0.00327453425249
        0.00328238237335
        0.00329024930391
        0.00329813508924
        0.00330603977455
        0.00331396340512
        0.00332190602636
        0.0033298676838
        0.00333784842304
        0.00334584828984
        0.00335386733002
        0.00336190558955
        0.00336996311448
        0.00337803995099
        0.00338613614536
        0.003394251744
        0.0034023867934
        0.00341054134018
        0.00341871543108
        0.00342690911293
        0.0034351224327
        0.00344335543743
        0.00345160817433
        0.00345988069066
        0.00346817303386
        0.00347648525142
        0.00348481739099
        0.00349316950031
        0.00350154162724
        0.00350993381977
        0.00351834612598
        0.00352677859407
        0.00353523127238
        0.00354370420934
        0.0035521974535
        0.00356071105353
        0.00356924505823
        0.00357779951649
        0.00358637447734
        0.00359496998991
        0.00360358610347
        0.00361222286738
        0.00362088033114
        0.00362955854437
        0.00363825755678
        0.00364697741824
        0.00365571817871
        0.00366447988827
        0.00367326259715
        0.00368206635566
        0.00369089121426
        0.00369973722352
        0.00370860443414
        0.00371749289691
        0.00372640266279
        0.00373533378282
        0.00374428630819
        0.0037532602902
        0.00376225578028
        0.00377127282997
        0.00378031149094
        0.003789371815
        0.00379845385405
        0.00380755766016
        0.00381668328548
        0.00382583078231
        0.00383500020307
        0.00384419160031
        0.0038534050267
        0.00386264053503
        0.00387189817822
        0.00388117800934
        0.00389048008156
        0.00389980444818
        0.00390915116263
        0.00391852027848
        0.00392791184942
        0.00393732592927
        0.00394676257197
        0.0039562218316
        0.00396570376237
        0.0039752084186
        0.00398473585478
        0.0039942861255
        0.00400385928548
        0.00401345538958
        0.00402307449279
        0.00403271665024
        0.00404238191718
        0.004052070349
        0.00406178200121
        0.00407151692948
        0.00408127518957
        0.00409105683743
        0.00410086192909
        0.00411069052075
        0.00412054266873
        0.00413041842948
        0.00414031785961
        0.00415024101583
        0.00416018795502
        0.00417015873418
        0.00418015341043
        0.00419017204106
        0.00420021468348
        0.00421028139524
        0.00422037223403
        0.00423048725766
        0.00424062652411
        0.00425079009148
        0.00426097801801
        0.00427119036208
        0.00428142718221
        0.00429168853708
        0.00430197448547
        0.00431228508633
        0.00432262039875
        0.00433298048195
        0.00434336539531
        0.00435377519833
        0.00436420995067
        0.00437466971212
        0.00438515454262
        0.00439566450226
        0.00440619965126
        0.00441676005
        0.00442734575899
        0.00443795683889
        0.00444859335051
        0.00445925535481
        0.00446994291287
        0.00448065608595
        0.00449139493544
        0.00450215952288
        0.00451294990995
        0.00452376615848
        0.00453460833047
        0.00454547648804
        0.00455637069347
        0.00456729100919
        0.00457823749778
        0.00458921022197
        0.00460020924464
        0.00461123462881
        0.00462228643767
        0.00463336473455
        0.00464446958294
        0.00465560104647
        0.00466675918893
        0.00467794407426
        0.00468915576656
        0.00470039433007
        0.00471165982921
        0.00472295232852
        0.00473427189271
        0.00474561858666
        0.00475699247538
        0.00476839362406
        0.00477982209803
        0.00479127796278
        0.00480276128395
        0.00481427212735
        0.00482581055896
        0.00483737664487
        0.00484897045139
        0.00486059204493
        0.00487224149211
        0.00488391885968
        0.00489562421455
        0.00490735762381
        0.00491911915469
        0.00493090887459
        0.00494272685107
        0.00495457315186
        0.00496644784483
        0.00497835099805
        0.00499028267972
        0.00500224295821
        0.00501423190206
        0.00502624957998
        0.00503829606083
        0.00505037141364
        0.00506247570762
        0.00507460901212
        0.00508677139668
        0.00509896293099
        0.00511118368492
        0.0051234337285
        0.00513571313192
        0.00514802196556
        0.00516036029994
        0.00517272820578
        0.00518512575395
        0.00519755301549
        0.00521001006162
        0.00522249696372
        0.00523501379335
        0.00524756062223
        0.00526013752227
        0.00527274456554
        0.00528538182428
        0.00529804937091
        0.00531074727802
        0.00532347561838
        0.00533623446493
        0.00534902389077
        0.00536184396921
        0.00537469477371
        0.0053875763779
        0.00540048885561
        0.00541343228083
        0.00542640672774
        0.00543941227067
        0.00545244898417
        0.00546551694294
        0.00547861622187
        0.00549174689601
        0.00550490904062
        0.00551810273112
        0.00553132804312
        0.0055445850524
        0.00555787383494
        0.00557119446689
        0.00558454702457
        0.00559793158451
        0.00561134822341
        0.00562479701815
        0.0056382780458
        0.00565179138361
        0.00566533710903
        0.00567891529967
        0.00569252603334
        0.00570616938804
        0.00571984544196
        0.00573355427346
        0.00574729596111
        0.00576107058364
        0.00577487822
        0.00578871894932
        0.00580259285089
        0.00581650000424
        0.00583044048904
        0.0058444143852
        0.00585842177279
        0.00587246273207
        0.00588653734351
        0.00590064568777
        0.00591478784568
        0.0059289638983
        0.00594317392685
        0.00595741801278
        0.0059716962377
        0.00598600868343
        0.006000355432
        0.00601473656562
        0.0060291521667
        0.00604360231784
        0.00605808710186
        0.00607260660176
        0.00608716090074
        0.0061017500822
        0.00611637422976
        0.00613103342721
        0.00614572775856
        0.00616045730801
        0.00617522215998
        0.00619002239907
        0.00620485811009
        0.00621972937806
        0.0062346362882
        0.00624957892594
        0.0062645573769
        0.00627957172692
        0.00629462206203
        0.00630970846849
        0.00632483103275
        0.00633998984146
        0.00635518498149
        0.00637041653993
        0.00638568460404
        0.00640098926134
        0.00641633059951
        0.00643170870648
        0.00644712367037
        0.00646257557951
        0.00647806452245
        0.00649359058795
        0.00650915386499
        0.00652475444274
        0.00654039241061
        0.00655606785822
        0.00657178087538
        0.00658753155214
        0.00660331997876
        0.00661914624573
        0.00663501044372
        0.00665091266365
        0.00666685299665
        0.00668283153406
        0.00669884836745
        0.0067149035886
        0.00673099728952
        0.00674712956243
        0.00676330049978
        0.00677951019424
        0.00679575873869
        0.00681204622625
        0.00682837275025
        0.00684473840426
        0.00686114328205
        0.00687758747764
        0.00689407108525
        0.00691059419935
        0.00692715691462
        0.00694375932598
        0.00696040152856
        0.00697708361774
        0.00699380568911
        0.00701056783849
        0.00702737016195
        0.00704421275576
        0.00706109571645
        0.00707801914076
        0.00709498312567
        0.0071119877684
        0.00712903316638
        0.0071461194173
        0.00716324661907
        0.00718041486984
        0.00719762426799
        0.00721487491214
        0.00723216690114
        0.00724950033409
        0.00726687531032
        0.00728429192938
        0.0073017502911
        0.0073192504955
        0.00733679264289
        0.00735437683378
        0.00737200316894
        0.00738967174937
        0.00740738267634
        0.00742513605132
        0.00744293197606
        0.00746077055254
        0.00747865188297
        0.00749657606984
        0.00751454321584
        0.00753255342395
        0.00755060679737
        0.00756870343956
        0.00758684345421
        0.00760502694529
        0.00762325401699
        0.00764152477375
        0.00765983932029
        0.00767819776155
        0.00769660020274
        0.00771504674931
        0.00773353750697
        0.00775207258168
        0.00777065207966
        0.00778927610737
        0.00780794477155
        0.00782665817916
        0.00784541643746
        0.00786421965392
        0.00788306793632
        0.00790196139265
        0.00792090013118
        0.00793988426044
        0.00795891388923
        0.00797798912659
        0.00799711008182
        0.00801627686452
        0.0080354895845
        0.00805474835186
        0.00807405327698
        0.00809340447048
        0.00811280204325
        0.00813224610644
        0.00815173677148
        0.00817127415007
        0.00819085835415
        0.00821048949597
        0.00823016768801
        0.00824989304304
        0.0082696656741
        0.0082894856945
        0.0083093532178
        0.00832926835787
        0.00834923122883
        0.00836924194507
        0.00838930062127
        0.00840940737237
        0.0084295623136
        0.00844976556045
        0.00847001722869
        0.00849031743438
        0.00851066629386
        0.00853106392372
        0.00855151044086
        0.00857200596245
        0.00859255060593
        0.00861314448904
        0.00863378772979
        0.00865448044647
        0.00867522275767
        0.00869601478225
        0.00871685663936
        0.00873774844844
        0.00875869032919
        0.00877968240164
        0.00880072478607
        0.00882181760307
        0.00884296097352
        0.00886415501857
        0.00888539985967
        0.00890669561858
        0.00892804241732
        0.00894944037822
        0.00897088962391
        0.0089923902773
        0.0090139424616
        0.00903554630031
        0.00905720191723
        0.00907890943647
        0.00910066898241
        0.00912248067976
        0.0091443446535
        0.00916626102892
        0.00918822993161
        0.00921025148748
        0.0092323258227
        0.00925445306379
        0.00927663333754
        0.00929886677105
        0.00932115349174
        0.00934349362731
        0.00936588730579
        0.0093883346555
        0.00941083580509
        0.00943339088348
        0.00945600001994
        0.00947866334402
        0.0095013809856
        0.00952415307487
        0.0095469797423
        0.00956986111873
        0.00959279733526
        0.00961578852333
        0.0096388348147
        0.00966193634143
        0.0096850932359
        0.00970830563081
        0.00973157365919
        0.00975489745437
        0.00977827715001
        0.00980171288008
        0.00982520477889
        0.00984875298105
        0.0098723576215
        0.00989601883552
        0.0099197367587
        0.00994351152694
        0.00996734327649
        0.00999123214393
        0.0100151782661
        0.0100391817803
        0.0100632428241
        0.0100873615353
        0.0101115380521
        0.0101357725131
        0.0101600650572
        0.0101844158236
        0.0102088249517
        0.0102332925816
        0.0102578188533
        0.0102824039075
        0.0103070478851
        0.0103317509272
        0.0103565131754
        0.0103813347716
        0.0104062158581
        0.0104311565774
        0.0104561570725
        0.0104812174867
        0.0105063379634
        0.0105315186468
        0.010556759681
        0.0105820612107
        0.010607423381
        0.0106328463372
        0.0106583302249
        0.0106838751901
        0.0107094813794
        0.0107351489393
        0.010760878017
        0.01078666876
        0.010812521316
        0.0108384358331
        0.0108644124599
        0.0108904513453
        0.0109165526384
        0.0109427164889
        0.0109689430466
        0.0109952324618
        0.0110215848853
        0.0110480004679
        0.0110744793612
        0.0111010217168
        0.0111276276868
        0.0111542974236
        0.0111810310803
        0.0112078288098
        0.0112346907658
        0.0112616171022
        0.0112886079734
        0.0113156635339
        0.0113427839389
        0.0113699693437
        0.0113972199041
        0.0114245357763
        0.0114519171169
        0.0114793640827
        0.011506876831
        0.0115344555195
        0.0115621003062
        0.0115898113495
        0.0116175888083
        0.0116454328416
        0.0116733436092
        0.0117013212709
        0.011729365987
        0.0117574779183
        0.0117856572258
        0.011813904071
        0.0118422186159
        0.0118706010226
        0.0118990514538
        0.0119275700725
        0.0119561570422
        0.0119848125267
        0.0120135366902
        0.0120423296973
        0.0120711917129
        0.0121001229026
        0.012129123432
        0.0121581934674
        0.0121873331753
        0.0122165427228
        0.0122458222772
        0.0122751720063
        0.0123045920783
        0.0123340826617
        0.0123636439257
        0.0123932760396
        0.0124229791731
        0.0124527534965
        0.0124825991805
        0.012512516396
        0.0125425053146
        0.0125725661079
        0.0126026989484
        0.0126329040087
        0.0126631814619
        0.0126935314814
        0.0127239542413
        0.0127544499158
        0.0127850186796
        0.0128156607081
        0.0128463761767
        0.0128771652615
        0.012908028139
        0.0129389649859
        0.0129699759796
        0.0130010612977
        0.0130322211185
        0.0130634556204
        0.0130947649824
        0.0131261493841
        0.0131576090052
        0.0131891440259
        0.0132207546271
        0.0132524409899
        0.0132842032957
        0.0133160417268
        0.0133479564654
        0.0133799476945
        0.0134120155975
        0.013444160358
        0.0134763821603
        0.013508681189
        0.0135410576293
        0.0135735116666
        0.0136060434869
        0.0136386532768
        0.0136713412229
        0.0137041075127
        0.0137369523339
        0.0137698758747
        0.0138028783238
        0.0138359598703
        0.0138691207039
        0.0139023610144
        0.0139356809925
        0.013969080829
        0.0140025607153
        0.0140361208434
        0.0140697614054
        0.0141034825943
        0.0141372846032
        0.0141711676258
        0.0142051318563
        0.0142391774894
        0.0142733047201
        0.014307513744
        0.0143418047571
        0.014376177956
        0.0144106335376
        0.0144451716993
        0.0144797926391
        0.0145144965554
        0.0145492836471
        0.0145841541134
        0.0146191081543
        0.01465414597
        0.0146892677613
        0.0147244737295
        0.0147597640763
        0.014795139004
        0.0148305987152
        0.0148661434132
        0.0149017733017
        0.0149374885848
        0.0149732894672
        0.015009176154
        0.015045148851
        0.0150812077643
        0.0151173531004
        0.0151535850665
        0.0151899038703
        0.0152263097199
        0.0152628028239
        0.0152993833913
        0.015336051632
        0.0153728077559
        0.0154096519737
        0.0154465844965
        0.015483605536
        0.0155207153044
        0.0155579140142
        0.0155952018787
        0.0156325791115
        0.0156700459269
        0.0157076025394
        0.0157452491645
        0.0157829860177
        0.0158208133153
        0.0158587312741
        0.0158967401114
        0.015934840045
        0.0159730312933
        0.016011314075
        0.0160496886096
        0.016088155117
        0.0161267138175
        0.0161653649323
        0.0162041086826
        0.0162429452907
        0.016281874979
        0.0163208979706
        0.0163600144891
        0.0163992247588
        0.0164385290042
        0.0164779274506
        0.0165174203238
        0.0165570078502
        0.0165966902565
        0.0166364677701
        0.0166763406191
        0.0167163090319
        0.0167563732375
        0.0167965334655
        0.0168367899461
        0.01687714291
        0.0169175925884
        0.016958139213
        0.0169987830163
        0.0170395242312
        0.0170803630911
        0.01712129983
        0.0171623346826
        0.0172034678839
        0.0172446996698
        0.0172860302765
        0.0173274599407
        0.0173689889001
        0.0174106173924
        0.0174523456563
        0.0174941739309
        0.017536102456
        0.0175781314716
        0.0176202612188
        0.017662491939
        0.0177048238741
        0.0177472572667
        0.0177897923599
        0.0178324293977
        0.0178751686242
        0.0179180102844
        0.0179609546237
        0.0180040018884
        0.018047152325
        0.0180904061809
        0.0181337637039
        0.0181772251424
        0.0182207907456
        0.018264460763
        0.018308235445
        0.0183521150423
        0.0183960998065
        0.0184401899895
        0.0184843858441
        0.0185286876235
        0.0185730955816
        0.0186176099728
        0.0186622310523
        0.0187069590757
        0.0187517942994
        0.0187967369803
        0.0188417873759
        0.0188869457444
        0.0189322123446
        0.0189775874359
        0.0190230712783
        0.0190686641324
        0.0191143662595
        0.0191601779216
        0.0192060993811
        0.0192521309011
        0.0192982727456
        0.0193445251788
        0.0193908884658
        0.0194373628724
        0.0194839486649
        0.0195306461101
        0.0195774554757
        0.01962437703
        0.0196714110418
        0.0197185577807
        0.0197658175168
        0.0198131905209
        0.0198606770646
        0.0199082774199
        0.0199559918596
        0.0200038206572
        0.0200517640867
        0.0200998224229
        0.0201479959412
        0.0201962849176
        0.0202446896288
        0.0202932103523
        0.020341847366
        0.0203906009487
        0.0204394713798
        0.0204884589394
        0.0205375639081
        0.0205867865673
        0.0206361271992
        0.0206855860864
        0.0207351635124
        0.0207848597613
        0.0208346751179
        0.0208846098676
        0.0209346642966
        0.0209848386918
        0.0210351333406
        0.0210855485312
        0.0211360845527
        0.0211867416945
        0.021237520247
        0.0212884205011
        0.0213394427486
        0.0213905872818
        0.0214418543938
        0.0214932443783
        0.02154475753
        0.0215963941439
        0.021648154516
        0.0217000389429
        0.0217520477218
        0.021804181151
        0.021856439529
        0.0219088231554
        0.0219613323304
        0.0220139673548
        0.0220667285303
        0.0221196161592
        0.0221726305447
        0.0222257719904
        0.0222790408009
        0.0223324372816
        0.0223859617383
        0.0224396144778
        0.0224933958075
        0.0225473060357
        0.0226013454713
        0.0226555144239
        0.022709813204
        0.0227642421227
        0.022818801492
        0.0228734916244
