
surface glass(float eta = 1.5)
{
	float from_ior, to_ior;

	if (backfacing())
	{
		from_ior = eta;
		getattribute("path:ray_ior", to_ior);
	}
	else
	{
		getattribute("path:ray_ior", from_ior);
		to_ior = eta;
	}

	float Kr, Kt;
	fresnel( I, N, from_ior / to_ior, Kr, Kt);
 	Ci = (Kr * reflection(N)) + (Kt * refraction(N, from_ior / to_ior));
}
