
surface raytypes_test()
{
	if (raytype("camera")) // ratype == 1
		Ci = color( 1.0, 0.5, 0.0) * diffuse(N);
	else if (raytype("light")) // raytype == 2
		Ci = color( 0.0, 0.5, 1.0) * diffuse(N);
	else if (raytype("shadow")) // raytype == 4
		Ci = 0.5 * transparent();
	else if (raytype("probe"))
		Ci = color( 0.0, 1.0, 0.0) * diffuse(N);
	else if (raytype("diffuse"))
		Ci = color( 1.0, 0.0, 0.0) * diffuse(N);
	else if (raytype("glossy"))
		Ci = color( 1.0, 1.0, 0.0) * diffuse(N);
	else if (raytype("specular"))
		Ci = color( 0.0, 0.0, 1.0) * diffuse(N);
	else
		Ci = color( 0.7, 0.7, 0.7) * diffuse(N);
}
