
surface transparent_shadow_checkers(
    float kd = 1,
    color Cs = 1,
    float scale = 5,
    float transparency = 0.0)
{
    if (raytype("shadow"))
    {
        point q = P * scale;
        q[0] = (q[0] + 0.00001) * 0.9999;
        q[1] = (q[1] + 0.00001) * 0.9999;
        q[2] = (q[2] + 0.00001) * 0.9999;
    
        int xi = (int)fabs(floor(q[0]));
        int yi = (int)fabs(floor(q[1]));
        int zi = (int)fabs(floor(q[2]));
                
        float transp = transparency;
                
        if ((xi % 2 == yi % 2) == (zi % 2))
            transp = 1.0;
                
        Ci = transp * transparent();
    }
    else
        Ci = kd * Cs * diffuse(N);
}
